src/assets/dashboard.svg

<svg width="20" height="20" viewBox="0 0 20 20" fill="none" xmlns="http://www.w3.org/2000/svg">
<path d="M5.83073 8.95768H4.16406C2.1474 8.95768 1.03906 7.84935 1.03906 5.83268V4.16602C1.03906 2.14935 2.1474 1.04102 4.16406 1.04102H5.83073C7.8474 1.04102 8.95573 2.14935 8.95573 4.16602V5.83268C8.95573 7.84935 7.8474 8.95768 5.83073 8.95768ZM4.16406 2.29102C2.8474 2.29102 2.28906 2.84935 2.28906 4.16602V5.83268C2.28906 7.14935 2.8474 7.70768 4.16406 7.70768H5.83073C7.1474 7.70768 7.70573 7.14935 7.70573 5.83268V4.16602C7.70573 2.84935 7.1474 2.29102 5.83073 2.29102H4.16406Z" fill="#B1B1B1"/>
<path d="M15.8307 8.95768H14.1641C12.1474 8.95768 11.0391 7.84935 11.0391 5.83268V4.16602C11.0391 2.14935 12.1474 1.04102 14.1641 1.04102H15.8307C17.8474 1.04102 18.9557 2.14935 18.9557 4.16602V5.83268C18.9557 7.84935 17.8474 8.95768 15.8307 8.95768ZM14.1641 2.29102C12.8474 2.29102 12.2891 2.84935 12.2891 4.16602V5.83268C12.2891 7.14935 12.8474 7.70768 14.1641 7.70768H15.8307C17.1474 7.70768 17.7057 7.14935 17.7057 5.83268V4.16602C17.7057 2.84935 17.1474 2.29102 15.8307 2.29102H14.1641Z" fill="#B1B1B1"/>
<path d="M15.8307 18.9577H14.1641C12.1474 18.9577 11.0391 17.8493 11.0391 15.8327V14.166C11.0391 12.1493 12.1474 11.041 14.1641 11.041H15.8307C17.8474 11.041 18.9557 12.1493 18.9557 14.166V15.8327C18.9557 17.8493 17.8474 18.9577 15.8307 18.9577ZM14.1641 12.291C12.8474 12.291 12.2891 12.8493 12.2891 14.166V15.8327C12.2891 17.1493 12.8474 17.7077 14.1641 17.7077H15.8307C17.1474 17.7077 17.7057 17.1493 17.7057 15.8327V14.166C17.7057 12.8493 17.1474 12.291 15.8307 12.291H14.1641Z" fill="#B1B1B1"/>
<path d="M5.83073 18.9577H4.16406C2.1474 18.9577 1.03906 17.8493 1.03906 15.8327V14.166C1.03906 12.1493 2.1474 11.041 4.16406 11.041H5.83073C7.8474 11.041 8.95573 12.1493 8.95573 14.166V15.8327C8.95573 17.8493 7.8474 18.9577 5.83073 18.9577ZM4.16406 12.291C2.8474 12.291 2.28906 12.8493 2.28906 14.166V15.8327C2.28906 17.1493 2.8474 17.7077 4.16406 17.7077H5.83073C7.1474 17.7077 7.70573 17.1493 7.70573 15.8327V14.166C7.70573 12.8493 7.1474 12.291 5.83073 12.291H4.16406Z" fill="#B1B1B1"/>
</svg>

<svg xmlns="http://www.w3.org/2000/svg" width="20" height="20" fill="none"><path fill="#B1B1B1" d="M5.83 8.958H4.165c-2.017 0-3.125-1.109-3.125-3.125V4.166c0-2.017 1.108-3.125 3.125-3.125h1.667c2.016 0 3.125 1.108 3.125 3.125v1.667c0 2.016-1.109 3.125-3.125 3.125M4.165 2.29c-1.317 0-1.875.558-1.875 1.875v1.667c0 1.316.558 1.875 1.875 1.875h1.667c1.316 0 1.875-.559 1.875-1.875V4.166c0-1.317-.559-1.875-1.875-1.875zM15.83 8.958h-1.666c-2.017 0-3.125-1.109-3.125-3.125V4.166c0-2.017 1.108-3.125 3.125-3.125h1.667c2.016 0 3.125 1.108 3.125 3.125v1.667c0 2.016-1.109 3.125-3.125 3.125M14.165 2.29c-1.317 0-1.875.558-1.875 1.875v1.667c0 1.316.558 1.875 1.875 1.875h1.667c1.316 0 1.875-.559 1.875-1.875V4.166c0-1.317-.559-1.875-1.875-1.875zM15.83 18.958h-1.666c-2.017 0-3.125-1.109-3.125-3.125v-1.667c0-2.017 1.108-3.125 3.125-3.125h1.667c2.016 0 3.125 1.108 3.125 3.125v1.667c0 2.016-1.109 3.125-3.125 3.125m-1.666-6.667c-1.317 0-1.875.558-1.875 1.875v1.667c0 1.316.558 1.875 1.875 1.875h1.667c1.316 0 1.875-.559 1.875-1.875v-1.667c0-1.317-.559-1.875-1.875-1.875zM5.83 18.958H4.165c-2.017 0-3.125-1.109-3.125-3.125v-1.667c0-2.017 1.108-3.125 3.125-3.125h1.667c2.016 0 3.125 1.108 3.125 3.125v1.667c0 2.016-1.109 3.125-3.125 3.125M4.165 12.29c-1.317 0-1.875.558-1.875 1.875v1.667c0 1.316.558 1.875 1.875 1.875h1.667c1.316 0 1.875-.559 1.875-1.875v-1.667c0-1.317-.559-1.875-1.875-1.875z"/></svg>
